theme-map4trip/src/main/assets/themes/mapsforgeV3/map4trip/symbols/power_generator_nuclear.svg

<svg enable-background="new 0 0 20 20" height="20" viewBox="0 0 20 20" width="20" xmlns="http://www.w3.org/2000/svg" xmlns:xlink="http://www.w3.org/1999/xlink"><image height="26" overflow="visible" transform="translate(-3 -3)" width="26" xlink:href="data:image/png;base64,iVBORw0KGgoAAAANSUhEUgAAABoAAAAaCAYAAACpSkzOAAAACXBIWXMAAAsSAAALEgHS3X78AAAA
GXRFWHRTb2Z0d2FyZQBBZG9iZSBJbWFnZVJlYWR5ccllPAAAAiRJREFUeNq8lslLAzEUhydx6kZV
XFu1Cl5EL4KKeBb/bvEsQgU9KHoQrXWpu4jVLjP+XvmlhLGztFUDH+mSmS8vM3kvyolovu8rflRO
dPMbg5TywwaoCIlGlwJ97FWEpAq+pIfMSyyCpAfdAJgEs2AEuC3Gi6QGXkER3IMy8ILRqQhJDqwR
kfWHRPQJrkEeHPLzezA6N0QyBzbAFlgFU1y+Vq3KSGTMKDgCZ+AR96uYyNzAMzGRiGSbfY6/6xCR
zHoIpMEEhQ6f2QuoN0V8u1IctMZINhjZYITE4X8yZoYvjrQSeBIZ7v0hS+hag2VGC2ATrDOSOIkt
E8k4WAQP4JnP6lqW0GU0IhzjoGUw3YbEfrF6uSorjOpCnhWomBvJbLJgCcwzunYkdmT93BYz3BaN
Pag5E/kyDDLsUwmyQZTsx0bXVtgpht6NJHSP6qQpqdumnX9qulUW/kuRycAV9r8h9IMiI3kDd+y7
kXl22TD30VZeugUn4JI72utQUuZmLbJ8NGSa2bXG3HQKjsEN+GhT5vGaK3DAslFkEM3s7TGKc7DH
TesG8p1KICmAfbBL0T3rku+aWo9WZch5awI15r10xEY2y3VFyQ57+V42xa9Zj+QHyMwFRvLGJDtv
paZWha/E5dqlpEBJPUkpn2LZWGSyzVj1JljKi1yJvBVJPcnhxCTGNMtH1npuKu5wEpTEHbcUXwI3
5sjV+XGrg0Nk7AHyW4ABADYvzsf/BLoVAAAAAElFTkSuQmCC"/><path d="m19.4 10c0 5.2-4.2 9.4-9.4 9.4s-9.4-4.2-9.4-9.4 4.2-9.4 9.4-9.4c5.2 0 9.4 4.2 9.4 9.4z" fill="#fff"/><path d="m10.1 19.8c-5.4 0-9.9-4.4-9.9-9.9s4.4-9.9 9.9-9.9c5.4 0 9.9 4.4 9.9 9.9s-4.5 9.9-9.9 9.9zm0-18.7c-4.9 0-8.9 4-8.9 8.9s4 8.9 8.9 8.9 8.9-4 8.9-8.9c-.1-4.9-4.1-8.9-8.9-8.9z"/><path d="m14 3.1-2.5 4.3c.9.5 1.5 1.5 1.5 2.6h4.9c0-3-1.5-5.5-3.9-6.9z"/><path d="m2.2 10h4.9c0-1 .5-2 1.5-2.6l-2.5-4.3c-2.5 1.5-3.9 4.1-3.9 6.9z"/><path d="m14 16.8-2.5-4.3c-.9.5-2 .5-3 0l-2.5 4.3c2.6 1.4 5.6 1.3 8 0z"/><path d="m12 10c0 1.1-.9 2-2 2s-2-.9-2-2 .9-2 2-2 2 .9 2 2z"/></svg>

<?xml version="1.0" encoding="utf-8"?>
<!-- Generator: Adobe Illustrator 14.0.0, SVG Export Plug-In . SVG Version: 6.00 Build 43363)  -->
<!DOCTYPE svg PUBLIC "-//W3C//DTD SVG 1.0//EN" "http://www.w3.org/TR/2001/REC-SVG-20010904/DTD/svg10.dtd">
<svg version="1.0" xmlns="http://www.w3.org/2000/svg" xmlns:xlink="http://www.w3.org/1999/xlink" x="0px" y="0px" width="20px"
	 height="20px" viewBox="0 0 20 20" style="enable-background:new 0 0 20 20;" xml:space="preserve">
<g id="power:generator:clasic" style="display:none;">
	<g style="display:inline;">
		<polygon points="0.8,19.9 0.8,11.6 1.6,11.6 5.8,7.6 5.8,11.4 9.9,7.6 9.9,11.2 13.7,7.6 13.7,11.6 15,11.6 15,0.1 19.1,0.1 
			19.1,19.9 		"/>
		<path style="fill:#FFFFFF;" d="M18.6,0.6v18.8h-0.4h-2.7H1.3v-7.3h0.5l3.6-3.4v3.4h0.5l3.6-3.4v3.4h0.2l3.6-3.4v3.4h2.3V0.6H18.6
			 M19.6-0.4h-1h-3.1h-1v1v10.5h-0.3V8.7V6.4L12.5,8l-2.1,2V8.7V6.4L8.7,8l-2.4,2.3V8.7V6.4L4.6,8l-3.3,3.1H1.3h-1v1v7.3v1h1h14.2
			h2.7h0.4h1v-1V0.6V-0.4L19.6-0.4z"/>
	</g>
	
		<sodipodi:namedview  id="base" showgrid="true" borderopacity="1.0" bordercolor="#666666" pagecolor="#ffffff" guidetolerance="10.0" gridtolerance="10.0" objecttolerance="10.0" inkscape:window-height="480" inkscape:pageopacity="0.0" inkscape:pageshadow="2" inkscape:window-width="640">
		<inkscape:grid  type="xygrid" visible="true" enabled="true" id="grid2383"></inkscape:grid>
	</sodipodi:namedview>
	<defs  style="display:inline;">
		
		
			<inkscape:perspective  id="perspective10" inkscape:vp_y="0 : 1000 : 0" inkscape:vp_z="744.09448 : 526.18109 : 1" sodipodi:type="inkscape:persp3d" inkscape:vp_x="0 : 526.18109 : 1" inkscape:persp3d-origin="372.04724 : 350.78739 : 1">
			</inkscape:perspective>
		
			<inkscape:perspective  id="perspective2461" inkscape:vp_y="0 : 1000 : 0" inkscape:vp_z="20 : 10 : 1" sodipodi:type="inkscape:persp3d" inkscape:vp_x="0 : 10 : 1" inkscape:persp3d-origin="10 : 6.6666667 : 1">
			</inkscape:perspective>
		
			<inkscape:perspective  id="perspective2466" inkscape:vp_y="0 : 1000 : 0" inkscape:vp_z="800 : 300 : 1" sodipodi:type="inkscape:persp3d" inkscape:vp_x="0 : 300 : 1" inkscape:persp3d-origin="400 : 200 : 1">
			</inkscape:perspective>
	</defs>
	
		<sodipodi:namedview  id="namedview10" inkscape:cy="9.2770693" inkscape:zoom="26.052568" inkscape:cx="9.9125234" showgrid="true" borderopacity="1.0" bordercolor="#666666" pagecolor="#ffffff" gridtolerance="30" inkscape:document-units="px" inkscape:current-layer="layer1" inkscape:snap-bbox="true" inkscape:object-paths="true" inkscape:object-nodes="true" inkscape:bbox-paths="true" inkscape:bbox-nodes="true" inkscape:window-x="122" inkscape:window-y="11" inkscape:window-height="805" inkscape:pageopacity="0.0" inkscape:pageshadow="2" inkscape:window-width="1172">
		<inkscape:grid  type="xygrid" visible="true" enabled="true" id="grid12" empspacing="2" spacingx="0.5px" spacingy="0.5px">
			</inkscape:grid>
	</sodipodi:namedview>
</g>
<g id="power_x5F_generator_x5F_wind" style="display:none;">
	<g style="display:inline;">
		<path d="M8,21.1l0.9-10.7l-5.9,3.4l-1.6-2.8l5.9-3.4c0.1-0.8,0.5-1.5,1.1-2v-6.7h3.2v6.7c0.6,0.5,1,1.2,1.1,2l5.8,3.4l-1.6,2.8
			l-5.8-3.4l1.2,10.7H8z"/>
		<path style="fill:#FFFFFF;" d="M11.1-0.6v6.4c0.7,0.4,1.1,1.1,1.1,1.9c0,0,0,0.1,0,0.1l5.7,3.3l-1.1,1.9L11,9.8
			c-0.2,0.1-0.4,0.2-0.7,0.2l0.2,0.3l1.2,10.3H8.6l0.9-10.3L9.7,10C9.4,9.9,9.2,9.9,9,9.8l-5.7,3.3l-1.1-1.9l5.7-3.3
			c0,0,0-0.1,0-0.1c0-0.8,0.5-1.5,1.1-1.9v-6.4H11.1 M12.1-1.6h-1H8.9h-1v1v5.9C7.3,5.9,6.9,6.5,6.8,7.3l-5.2,3l-0.9,0.5l0.5,0.9
			l1.1,1.9l0.5,0.9l0.9-0.5l4.6-2.7l-0.8,9.2l-0.1,1.1h1.1h3.2h1.1l-0.1-1.1l-1-9.2l4.6,2.6l0.9,0.5l0.5-0.9l1.1-1.9l0.5-0.9
			l-0.9-0.5l-5.2-3c-0.1-0.7-0.5-1.4-1.1-1.9v-5.9V-1.6L12.1-1.6z"/>
	</g>
	<circle style="display:inline;fill:#FFFFFF;" cx="10" cy="7.8" r="1.3"/>
</g>
<g id="power_x5F_generator_x5F_nuclear">
	<g>
		
			<image style="overflow:visible;" width="26" height="26" xlink:href="data:image/png;base64,iVBORw0KGgoAAAANSUhEUgAAABoAAAAaCAYAAACpSkzOAAAACXBIWXMAAAsSAAALEgHS3X78AAAA
GXRFWHRTb2Z0d2FyZQBBZG9iZSBJbWFnZVJlYWR5ccllPAAAAiRJREFUeNq8lslLAzEUhydx6kZV
XFu1Cl5EL4KKeBb/bvEsQgU9KHoQrXWpu4jVLjP+XvmlhLGztFUDH+mSmS8vM3kvyolovu8rflRO
dPMbg5TywwaoCIlGlwJ97FWEpAq+pIfMSyyCpAfdAJgEs2AEuC3Gi6QGXkER3IMy8ILRqQhJDqwR
kfWHRPQJrkEeHPLzezA6N0QyBzbAFlgFU1y+Vq3KSGTMKDgCZ+AR96uYyNzAMzGRiGSbfY6/6xCR
zHoIpMEEhQ6f2QuoN0V8u1IctMZINhjZYITE4X8yZoYvjrQSeBIZ7v0hS+hag2VGC2ATrDOSOIkt
E8k4WAQP4JnP6lqW0GU0IhzjoGUw3YbEfrF6uSorjOpCnhWomBvJbLJgCcwzunYkdmT93BYz3BaN
Pag5E/kyDDLsUwmyQZTsx0bXVtgpht6NJHSP6qQpqdumnX9qulUW/kuRycAV9r8h9IMiI3kDd+y7
kXl22TD30VZeugUn4JI72utQUuZmLbJ8NGSa2bXG3HQKjsEN+GhT5vGaK3DAslFkEM3s7TGKc7DH
TesG8p1KICmAfbBL0T3rku+aWo9WZch5awI15r10xEY2y3VFyQ57+V42xa9Zj+QHyMwFRvLGJDtv
paZWha/E5dqlpEBJPUkpn2LZWGSyzVj1JljKi1yJvBVJPcnhxCTGNMtH1npuKu5wEpTEHbcUXwI3
5sjV+XGrg0Nk7AHyW4ABADYvzsf/BLoVAAAAAElFTkSuQmCC" transform="matrix(1 0 0 1 -3 -3)">
		</image>
		<g>
			<g>
				<g>
					<path sodipodi:cx="10" sodipodi:cy="10" sodipodi:rx="9.5" sodipodi:ry="9.5" sodipodi:type="arc" style="fill:#FFFFFF;" d="
						M19.4,10c0,5.2-4.2,9.4-9.4,9.4c-5.2,0-9.4-4.2-9.4-9.4c0-5.2,4.2-9.4,9.4-9.4C15.2,0.6,19.4,4.8,19.4,10z"/>
					<path d="M10.1,19.8c-5.4,0-9.9-4.4-9.9-9.9s4.4-9.9,9.9-9.9c5.4,0,9.9,4.4,9.9,9.9S15.5,19.8,10.1,19.8L10.1,19.8z M10.1,1.1
						c-4.9,0-8.9,4-8.9,8.9c0,4.9,4,8.9,8.9,8.9s8.9-4,8.9-8.9C18.9,5.1,14.9,1.1,10.1,1.1L10.1,1.1z"/>
				</g>
				<g>
					<path d="M14,3.1l-2.5,4.3C12.4,7.9,13,8.9,13,10h4.9C17.9,7,16.4,4.5,14,3.1z"/>
					<path d="M2.2,10h4.9c0-1,0.5-2,1.5-2.6L6.1,3.1C3.6,4.6,2.2,7.2,2.2,10z"/>
					<path d="M14,16.8l-2.5-4.3c-0.9,0.5-2,0.5-3,0l-2.5,4.3C8.6,18.2,11.6,18.1,14,16.8z"/>
					<path sodipodi:cx="10" sodipodi:cy="10" sodipodi:rx="2" sodipodi:ry="2" sodipodi:type="arc" d="M12,10c0,1.1-0.9,2-2,2
						c-1.1,0-2-0.9-2-2c0-1.1,0.9-2,2-2C11.1,8,12,8.9,12,10z"/>
				</g>
			</g>
		</g>
	</g>
</g>
</svg>
